X:1
T:Title
%%score { 1 | ( 2 3 ) }
L:1/8
M:6/8
K:Ab
V:1 treble nm="Grand Piano"
V:2 bass 
V:3 bass 
V:1
 z3 z2[Q:1/4=100] [Ec] | [Ec]2 [DB] [CA][DB][Ec] | B2 A F2 F | [CE]2 E A2 A | c2 [AB] [GB]3 | %5
[M:1/8] c |[M:3/4] c2 BA Bc | [FB]2 [FA] F2 F | E2 E d2 c | [=Dc]2 [_DB] [CA]3 |[M:1/8] [Ae] | %11
[M:3/4] [Ge]2 [GB] [GB]2 [Bd] | d2 c c2 c | [A=d]2 [Ad] [Ad]2 [Ad] | [Ac]2 [AB] [Ge]3 |[M:1/8] d | %16
[M:3/4] c2 B A2 A | d2 c B2 B |[M:7/8] [Ee]2 [Ee] [_Ge]3 [Fd] |[M:3/4] [Ec]2 [DEB] [CEA]3 |] %20
V:2
 z3 z2 [A,,A,] | [A,,A,]2 [A,,A,] [A,,E,]2 [A,,A,] | [D,F,D]2 [D,F,D] [D,A,D]2 [D,A,D] | %3
 [A,,A,]2[K:treble] [A,C] [A,CE]2 [A,CE] | [A,EA]2[K:bass] [F,=D] [E,E]3 | %5
[M:1/8][K:treble] [A,EA] |[M:3/4] [A,EA]2 [A,DG][CE] [DA][A,EA] | [D,D]2 [D,D] [D,A,D]2 [=D,A,_C] | %8
 [E,A,C]2 [E,A,C] [E,G,E]2 [F,A,=D] | [B,,A,]2 [E,G,] [A,,A,]3 |[M:1/8] [A,C] | %11
[M:3/4] [E,B,]2 [E,E] [E,E]2 [E,E] | [A,FA]2 [A,EA] [A,EA]2[K:bass] [A,E] | %13
 [F,B,]2 [F,B,] [F,B,]2 [F,B,] | [B,,B,]2 [B,,B,] [E,B,]3 |[M:1/8] D, |[M:3/4] C,2 B,, A,,2 A,, | %17
 D,2 C, B,,2 [D,G,] |[M:7/8] [C,A,]2 [B,,G,] [C,A,]3 [D,A,] |[M:3/4] [E,A,]2 E, A,,3 |] %20
V:3
 x6 | x6 | x6 | x2[K:treble] x4 | x2[K:bass] x4 |[M:1/8][K:treble] x |[M:3/4] z2 z .A,3 | x6 | x6 | %9
 x6 |[M:1/8] x |[M:3/4] x6 | x5[K:bass] x | x6 | x6 |[M:1/8] x |[M:3/4] x6 | x6 |[M:7/8] x7 | %19
[M:3/4] x6 |] %20

